X:2
T:Die Greene Koseene
T:(My Little Country Cousin)
C:Abe Schwartz
B:Easy to Play Jewish Song Hits, Kammen Music Co., 1957
M:4/4
L:1/4
K:Gm
"Gm"DGGB | [Bd][Bd][Ac][GB] | [B4d4] | [B4d4] |\
 f=efe | f=ed "(A)"^c | [B4d4] | [B4d4] ||
|: "Gm"d^cdc | "D7"d=cBA | "Gm"[G4B4] | "Cm"[G4c4] | "Gm"dDDD |
 B "D7"AG^F | "Gm"G2 "D7"A2 |1 "Gm"B2 | "Cm"c2 :|2 "Gm"G4 | [B3g3] z ||
